X: 2001
M: C
L: 1/8
K: A
uE !segno!|\
vA>uBA<E F<AE>uc | vd>uB dcBA G<B B>uc |\
vA>uB A<E F<A E>uc | (3def (3efg (3afe (3dcB |\
vA>uBA<E F<AE>uc |
vd>uB dcBA G<B B>uc |\
vA>uB A<E F<A E>uc | (3def (3efg a<A A>ug |\
va>vA ug>uA f>A e>A | d>B c>A G<B B>ug |\
va>vA ug>uA f>A e>A |
d>f (3efg a<A A>ug |\
va>vA ug>uA f>A e>A | vd>uB dcBA G<B B>uE |\


